X:396
T:Laxdale Cottage 
C:Joe Buchanan's Scottish Tome - Page 352.0
I:352 0
R:March
Z:Carl Allison
L:1/16
M:2/4
K:Amaj
|:"A"c2BA "A"c<e"D"d>f | "A"ecAB c2BA | "A"c<e"D"d<f "A"ec"F#m"AB | "Bm"c2B2 "E"B2ef |
"A"ec"E"B<c "A"AceA | "A"c<e"D"d<f "A"e2fg | "D"agaf "E7"ecB<e |1 "A"c2A2 A2AB :|2 "A"c2A2 A2cd |]
"A"e2fg "D"a2gf | "A"efe<A c2B<A | "A"c<e"D"d<f "A"ec"F#m"AB | "Bm"c2B2 "E7"B2cd |
"A"e2fg "D"a2gf | "A"efe<A c2e2 | "D"fgaf "E7"ecB<e | "A"c2A2 A2cd |
"A"e2fg "D"a2gf | "A"efe<A c2B<A | "A"c<e"D"d<f "A"ec"F#m"A<B | "Bm"c2B2 "E"B2ef |
"A"ec"E"B<c "A"Ace<A | "A"c<e"D"d<f "A"e2fg | "D"agaf "E7"ecB<e | "A"c2A2 A2e2 |]
|: "A"A2c<A eAcB | "A"AceA fec<e | "D"dcd<f "A"ec"F#m"AB | "Bm"c2B2 "E"B2e2 |
"A"A<Ac<A eAcB | "A"AceA fec<e | "D"fgaf "E7"ecB<e |1 "A"c2A2 A2e2 :|2 "A"c2A2 A2cd |]
"A"e2>f2 "E"ecB<c | "A"AceA fece | "D"dcd<f "A"ec"F#m"A<B | "Bm"c2B2 "E7"B2cd |
"A"e2>f2 "E"ecB<c | "A"AceA fec<e | "D"fgaf "E7"ecB<e | "A"c2A2 A2cd |
"A"e2>f2 "E"ecB<c | "A"AceA fec<e | "D"dcdf "A"ec"F#m"A<B | "A"c2B2 "E"B2ef |
"A"ec"E"B<c "A"AceA | "A"c<e"D"d<f "A"e2fg | "D"agaf "E7"ecB<e | "Bm"c2A2 A2 z2 |]

